icons/core/calendar.svg

<svg width="32" height="32" viewBox="0 0 32 32" fill="none" xmlns="http://www.w3.org/2000/svg">
<path fill-rule="evenodd" clip-rule="evenodd" d="M8 6.00007V9.00003H10V6.00007H22V9.00003H24V6.00007H28V12.0001H4V6.00007H8ZM8 4.00007H4C2.89543 4.00007 2 4.8955 2 6.00007V28.0001C2 29.1046 2.89543 30.0001 4 30.0001H28C29.1046 30.0001 30 29.1046 30 28.0001V6.00007C30 4.8955 29.1046 4.00007 28 4.00007H24V1.00003H22V4.00007H10V1.00003H8V4.00007ZM4 28.0001V14.0001H28V28.0001L4 28.0001Z" fill="black"/>
</svg>

<svg viewBox="0 0 32 32" xmlns="http://www.w3.org/2000/svg"><path fill-rule="evenodd" d="M8 6v3h2V6h12v3h2V6h4v6H4V6h4zm0-2H4a2 2 0 00-2 2v22a2 2 0 002 2h24a2 2 0 002-2V6a2 2 0 00-2-2h-4V1h-2v3H10V1H8v3zM4 28V14h24v14H4z"/></svg>
